outputs/icons/editor/align_center_sharp.svg

<svg xmlns="http://www.w3.org/2000/svg" width="1200" height="1200" fill="none"><g clip-path="url(#a)"><path fill="#000" d="M350 750v100h500V750zm-200 300h900V950H150zm0-400h900V550H150zm200-300v100h500V350zM150 150v100h900V150z"/></g><defs><clipPath id="a"><path fill="#fff" d="M0 0h1200v1200H0z"/></clipPath></defs></svg>

<svg width="1200" height="1200" viewBox="0 0 1200 1200" fill="none" xmlns="http://www.w3.org/2000/svg"><g clip-path="url(#clip0_238_3253)"><path d="M350 750V850H850V750H350ZM150 1050H1050V950H150V1050ZM150 650H1050V550H150V650ZM350 350V450H850V350H350ZM150 150V250H1050V150H150Z" fill="#1D1E23"/></g><defs><clipPath id="clip0_238_3253"><path width="24" fill="white" d="M0 0H1200V1200H0V0z"/></clipPath></defs></svg>
